X:80
%%etbk:tnset id:27,pos:3,rep:3x,ant:
%%etbk:wsite http://www.thesession.org/tunes/display/197
%%etbk:pldat 2015-03-24T16:33,2014-04-30T16:45,2014-04-27T14:05,2014-03-27T18:02,2014-02-05T16:39,2013-05-15T16:06,2013-04-30T16:09
T: Star Of Munster, The
H: Created 2013-02-19 /  Last Modified 2013-04-11
M: 4/4
L: 1/8
R: reel
K: Ador
|: "am"!3!c2Ac !2!B!1!A!2!G!4!B | !3!A!2!G!1!E!3!F !4!G!2!E!1!D!4!G | !1!E!3!AA!2!G !1!ABc!4!d | !2!e2!5!af !4!ge!1!d!2!B |
!3!c2Ac !2!B!1!A!2!G!4!B | !3!A!2!G!1!E!3!F !4!G!2!E!1!D!4!G | !1!E!3!AA!2!G !1!ABc!4!d  | "em"!5!e!3!c!4!d!2!B "am"!1!A4:|
|: "am"!1!e!3!aab ag!1!eg | !3!agbg ag!1!ef | "G"!3!g!2!g!3!ga gf!1!ef | !3!(3gfe !4!af !3!gf!1!e!2!d |
"am"!1!e!3!aab ag!1!eg | !3!agbg ag!1!ef | "G"!3!g2g!1!e !4!a2ga |1 !5!bg!4!af !4!g!2!e!1!d!4!g:|2 bgaf !4!ge!1!d!2!B:|


